RestoDelMundo/Suiza/Otras Categorias/Fc Wohlen.svg

<svg xmlns="http://www.w3.org/2000/svg" viewBox="0 0 612 792"><path d="M305.653 679.272c-98.079-72.54-217.062-181.267-217.194-305.733V166.913l217.856-52.728.432-.104 218.291 52.832v206.626c-.132 124.467-119.113 233.193-217.194 305.733l-1.097.809z"/><path fill="#0079c1" d="M92.146 169.814v203.725c-.132 121.513 116.873 229.673 214.602 301.957 97.73-72.284 214.734-180.444 214.604-301.957V169.814l-214.604-51.941z"/><path fill="#fff" d="M92.146 204.74h429.206v65.519H92.146ZM92.146 279.878v93.661c-.132 121.513 116.873 229.673 214.602 301.957V279.878zM92.146 169.814v25.308h214.602v-77.249Z"/><path fill="#0079c1" d="M167.623 389.461h7.426v37.268h3.576v-40.584h-9.145ZM209.799 385.218c-.127 0-.267.128-.394.128-3.849 0-6.899 1.198-9.284 3.582-2.524 2.384-3.849 5.568-3.849 9.55 0 3.71 1.192 6.766 3.45 9.018 2.251 2.384 5.041 3.583 8.618 3.583.394 0 .659-.134 1.065-.134.787 0 1.452-.134 2.257-.4 1.053-.393 2.118-.793 3.183-1.592l-5.44 7.293-7.964 10.609 3.056 1.863 4.909-6.767 4.902-6.627c3.183-4.247 5.307-7.697 6.5-10.215 1.065-2.524 1.591-4.908 1.591-7.293 0-3.716-1.192-6.771-3.449-9.151-2.252-2.26-5.307-3.447-9.151-3.447m6.1 19.893c-1.591 1.857-3.843 2.777-6.494 2.777h-.133c-2.657 0-4.908-.793-6.5-2.644-1.725-1.725-2.524-3.976-2.524-6.633 0-3.056.799-5.574 2.524-7.299 1.591-1.852 3.843-2.784 6.633-2.784 2.778 0 4.902.793 6.627 2.657 1.725 1.725 2.518 3.976 2.518 6.893 0 2.923-.926 5.308-2.651 7.033M242.559 385.218c-4.249.128-7.686 1.985-10.077 5.701-2.391 3.844-3.582 9.018-3.582 15.651s1.192 11.801 3.582 15.645c2.518 3.716 5.828 5.573 9.943 5.573h.133c4.248 0 7.686-1.857 10.083-5.573 2.384-3.716 3.577-8.885 3.577-15.645 0-6.634-1.192-11.808-3.577-15.651-2.396-3.716-5.834-5.701-10.082-5.701m7.431 34.745c-1.725 3.05-4.115 4.515-7.432 4.515-3.184 0-5.568-1.598-7.293-4.642-1.725-3.19-2.656-7.565-2.656-13.133 0-5.702.793-10.083 2.656-13.266 1.725-3.183 4.109-4.77 7.16-4.77h.133c3.183 0 5.707 1.453 7.432 4.503 1.713 3.189 2.518 7.559 2.518 13.4 0 5.834-.805 10.343-2.518 13.393M283.016 413.203V384.68L272.8 399.277l-12.074 17.108H279.3v10.344h3.716v-10.344h4.237v-3.183zm-3.716 0h-13l6.5-9.29 6.5-9.278zM155.62 219.068h27.579v5.302h-20.952v9.949h18.44v5.302h-18.44v16.183h-6.627zM219.547 230.603h-6.633c-.4-2.251-1.458-3.977-3.184-5.168-1.852-1.331-4.109-1.858-7.026-1.858-3.982 0-6.899 1.192-9.024 3.583-2.124 2.385-3.183 5.701-3.183 10.077q-.001 6.564 3.183 10.343c2.124 2.523 5.175 3.716 8.891 3.716 2.917 0 5.435-.799 7.287-2.385 1.991-1.598 3.056-3.716 3.322-6.234h6.494c-.127 4.109-1.852 7.554-5.035 10.21-3.322 2.657-7.426 3.976-12.335 3.976-5.839 0-10.348-1.725-13.665-5.168-3.317-3.45-5.041-8.225-5.041-14.192 0-6.1 1.725-10.876 5.041-14.325 3.449-3.444 8.091-5.041 14.064-5.041 4.908 0 8.878 1.059 11.807 3.316 3.046 2.124 4.638 5.173 5.037 9.15M234.526 219.068h6.772l7.692 27.851 7.426-27.851h7.026l7.559 27.718 7.831-27.718h6.628l-11.136 36.736h-6.506l-7.953-29.438-7.692 29.438h-6.633zM304.296 223.443c-3.979 0-7.029 1.198-9.153 3.716-2.251 2.385-3.449 5.828-3.449 10.343 0 4.376 1.198 7.819 3.449 10.21 2.124 2.518 5.174 3.849 9.153 3.849v5.302c-5.97 0-10.745-1.725-14.195-5.168-3.449-3.45-5.174-8.225-5.174-14.192 0-6.1 1.725-10.742 5.174-14.192s8.225-5.174 14.195-5.174zm0 0v-5.308c6.101 0 10.742 1.725 14.186 5.174 3.589 3.45 5.314 8.092 5.314 14.192 0 5.968-1.725 10.742-5.314 14.192-3.444 3.443-8.086 5.168-14.186 5.168v-5.302c3.982 0 7.026-1.331 9.278-3.849 2.257-2.391 3.322-5.834 3.322-10.21 0-4.515-1.065-7.958-3.322-10.343-2.252-2.515-5.296-3.714-9.278-3.714M327.105 219.068h6.634v14.458h19.094v-14.458h6.772v36.736h-6.772V238.96h-19.094v16.844h-6.634zM364.773 219.068h6.628v31.162h20.032v5.574h-26.66zM392.491 219.068h29.044v5.302h-22.41v9.682h20.685v5.175h-20.685v11.003h23.076v5.574h-29.71zM425.384 219.068h7.027l18.966 27.452v-27.452h6.501v36.736h-7.16l-18.967-27.452v27.452h-6.367z"/><path fill="#fff" d="m400.458 336.484 15.734 48.425h50.91l-41.187 29.928 15.734 48.419-41.191-29.928-41.19 29.928L375 414.837l-41.187-29.928h50.911Z"/></svg>

<svg enable-background="new 0 0 612 792" viewBox="0 0 612 792" xmlns="http://www.w3.org/2000/svg"><path d="M 305.653 679.272 c -98.079 -72.54 -217.062 -181.267 -217.194 -305.733 l 0 0 V 166.913 l 217.856 -52.728 l .432 -.104 l 218.291 52.832 v 206.626 c -.132 124.467 -119.113 233.193 -217.194 305.733 l 0 0 l -1.097 .809 L 305.653 679.272 L 305.653 679.272 z"/><path d="M 92.146 169.814 v 203.725 c -.132 121.513 116.873 229.673 214.602 301.957 l 0 0 c 97.73 -72.284 214.734 -180.444 214.604 -301.957 l 0 0 V 169.814 l -214.604 -51.941 L 92.146 169.814 L 92.146 169.814 z" fill="#0079c1"/><path d="M 92.146 204.74 H 521.352 V 270.259 H 92.146 Z" fill="#fff"/><path d="M 92.146 279.878 v 93.661 c -.132 121.513 116.873 229.673 214.602 301.957 V 279.878 H 92.146 z" fill="#fff"/><path d="M 92.146 169.814 L 92.146 195.122 L 306.748 195.122 L 306.748 117.873 Z" fill="#fff"/><path d="M 167.623 389.461 L 175.049 389.461 L 175.049 426.729 L 178.625 426.729 L 178.625 386.145 L 169.48 386.145 Z" fill="#0079c1"/><path d="M 209.799 385.218 c -.127 0 -.267 .128 -.394 .128 c -3.849 0 -6.899 1.198 -9.284 3.582 c -2.524 2.384 -3.849 5.568 -3.849 9.55 c 0 3.71 1.192 6.766 3.45 9.018 c 2.251 2.384 5.041 3.583 8.618 3.583 c .394 0 .659 -.134 1.065 -.134 c .787 0 1.452 -.134 2.257 -.4 c 1.053 -.393 2.118 -.793 3.183 -1.592 l -5.44 7.293 l -7.964 10.609 l 3.056 1.863 l 4.909 -6.767 l 4.902 -6.627 c 3.183 -4.247 5.307 -7.697 6.5 -10.215 c 1.065 -2.524 1.591 -4.908 1.591 -7.293 c 0 -3.716 -1.192 -6.771 -3.449 -9.151 C 216.698 386.405 213.643 385.218 209.799 385.218 z M 215.899 405.111 c -1.591 1.857 -3.843 2.777 -6.494 2.777 h -.133 c -2.657 0 -4.908 -.793 -6.5 -2.644 c -1.725 -1.725 -2.524 -3.976 -2.524 -6.633 c 0 -3.056 .799 -5.574 2.524 -7.299 c 1.591 -1.852 3.843 -2.784 6.633 -2.784 c 2.778 0 4.902 .793 6.627 2.657 c 1.725 1.725 2.518 3.976 2.518 6.893 C 218.55 401.001 217.624 403.386 215.899 405.111 z" fill="#0079c1"/><path d="M 242.559 385.218 c -4.249 .128 -7.686 1.985 -10.077 5.701 c -2.391 3.844 -3.582 9.018 -3.582 15.651 c 0 6.633 1.192 11.801 3.582 15.645 c 2.518 3.716 5.828 5.573 9.943 5.573 c .133 0 .133 0 .133 0 c 4.248 0 7.686 -1.857 10.083 -5.573 c 2.384 -3.716 3.577 -8.885 3.577 -15.645 c 0 -6.634 -1.192 -11.808 -3.577 -15.651 C 250.245 387.203 246.807 385.218 242.559 385.218 z M 249.99 419.963 c -1.725 3.05 -4.115 4.515 -7.432 4.515 c -3.184 0 -5.568 -1.598 -7.293 -4.642 c -1.725 -3.19 -2.656 -7.565 -2.656 -13.133 c 0 -5.702 .793 -10.083 2.656 -13.266 c 1.725 -3.183 4.109 -4.77 7.16 -4.77 c .133 0 .133 0 .133 0 c 3.183 0 5.707 1.453 7.432 4.503 c 1.713 3.189 2.518 7.559 2.518 13.4 C 252.508 412.404 251.703 416.913 249.99 419.963 z" fill="#0079c1"/><path d="M 283.016 413.203 V 384.68 L 272.8 399.277 l -12.074 17.108 H 272.8 h 6.5 v 10.344 h 3.716 v -10.344 h 4.237 v -3.183 H 283.016 z M 279.3 413.203 h -6.5 h -6.5 l 6.5 -9.29 l 6.5 -9.278 V 413.203 z" fill="#0079c1"/><path d="M 155.62 219.068 L 183.199 219.068 L 183.199 224.37 L 162.247 224.37 L 162.247 234.319 L 180.687 234.319 L 180.687 239.621 L 162.247 239.621 L 162.247 255.804 L 155.62 255.804 L 155.62 219.068" fill="#0079c1"/><path d="M 219.547 230.603 h -6.633 c -.4 -2.251 -1.458 -3.977 -3.184 -5.168 c -1.852 -1.331 -4.109 -1.858 -7.026 -1.858 c -3.982 0 -6.899 1.192 -9.024 3.583 c -2.124 2.385 -3.183 5.701 -3.183 10.077 c 0 4.375 1.059 7.825 3.183 10.343 c 2.124 2.523 5.175 3.716 8.891 3.716 c 2.917 0 5.435 -.799 7.287 -2.385 c 1.991 -1.598 3.056 -3.716 3.322 -6.234 h 6.494 c -.127 4.109 -1.852 7.554 -5.035 10.21 c -3.322 2.657 -7.426 3.976 -12.335 3.976 c -5.839 0 -10.348 -1.725 -13.665 -5.168 c -3.317 -3.45 -5.041 -8.225 -5.041 -14.192 c 0 -6.1 1.725 -10.876 5.041 -14.325 c 3.449 -3.444 8.091 -5.041 14.064 -5.041 c 4.908 0 8.878 1.059 11.807 3.316 C 217.556 223.577 219.148 226.626 219.547 230.603" fill="#0079c1"/><path d="M 234.526 219.068 L 241.298 219.068 L 248.99 246.919 L 256.416 219.068 L 263.442 219.068 L 271.001 246.786 L 278.832 219.068 L 285.46 219.068 L 274.324 255.804 L 267.818 255.804 L 259.865 226.366 L 252.173 255.804 L 245.54 255.804 L 234.526 219.068" fill="#0079c1"/><path d="M 304.296 223.443 c -3.979 0 -7.029 1.198 -9.153 3.716 c -2.251 2.385 -3.449 5.828 -3.449 10.343 c 0 4.376 1.198 7.819 3.449 10.21 c 2.124 2.518 5.174 3.849 9.153 3.849 v 5.302 c -5.97 0 -10.745 -1.725 -14.195 -5.168 c -3.449 -3.45 -5.174 -8.225 -5.174 -14.192 c 0 -6.1 1.725 -10.742 5.174 -14.192 c 3.45 -3.449 8.225 -5.174 14.195 -5.174 V 223.443 M 304.296 223.443 v -5.308 c 6.101 0 10.742 1.725 14.186 5.174 c 3.589 3.45 5.314 8.092 5.314 14.192 c 0 5.968 -1.725 10.742 -5.314 14.192 c -3.444 3.443 -8.086 5.168 -14.186 5.168 v -5.302 c 3.982 0 7.026 -1.331 9.278 -3.849 c 2.257 -2.391 3.322 -5.834 3.322 -10.21 c 0 -4.515 -1.065 -7.958 -3.322 -10.343 C 311.322 224.642 308.278 223.443 304.296 223.443 z" fill="#0079c1"/><path d="M 327.105 219.068 L 333.739 219.068 L 333.739 233.526 L 352.833 233.526 L 352.833 219.068 L 359.605 219.068 L 359.605 255.804 L 352.833 255.804 L 352.833 238.96 L 333.739 238.96 L 333.739 255.804 L 327.105 255.804 L 327.105 219.068" fill="#0079c1"/><path d="M 364.773 219.068 L 371.401 219.068 L 371.401 250.23 L 391.433 250.23 L 391.433 255.804 L 364.773 255.804 L 364.773 219.068" fill="#0079c1"/><path d="M 392.491 219.068 L 421.535 219.068 L 421.535 224.37 L 399.125 224.37 L 399.125 234.052 L 419.81 234.052 L 419.81 239.227 L 399.125 239.227 L 399.125 250.23 L 422.201 250.23 L 422.201 255.804 L 392.491 255.804 L 392.491 219.068" fill="#0079c1"/><path d="M 425.384 219.068 L 432.411 219.068 L 451.377 246.52 L 451.377 219.068 L 457.878 219.068 L 457.878 255.804 L 450.718 255.804 L 431.751 228.352 L 431.751 255.804 L 425.384 255.804 L 425.384 219.068" fill="#0079c1"/><path d="M 400.458 336.484 L 416.192 384.909 L 467.102 384.909 L 425.915 414.837 L 441.649 463.256 L 400.458 433.328 L 359.268 463.256 L 375 414.837 L 333.813 384.909 L 384.724 384.909 Z" fill="#fff"/></svg>
